X:1011
M:C
L:1/8
Q:1/4=80 "Slow"
K:D
faa>b a>baf      |edef   d>edA|Bbbd' b/a/g/f/ g/f/e/d/|e/f/g/f/   g/f/e/d/ Te2d2 |
faa>b a>baf      |e>def  d>edA|BdAd  GdF>b            |afed                Te2d2|]

